modules/themify-icons/icons/alert.svg

<?xml version="1.0" encoding="utf-8"?>
<!-- Generated by IcoMoon.io -->
<!DOCTYPE svg PUBLIC "-//W3C//DTD SVG 1.1//EN" "http://www.w3.org/Graphics/SVG/1.1/DTD/svg11.dtd">
<svg version="1.1" xmlns="http://www.w3.org/2000/svg" xmlns:xlink="http://www.w3.org/1999/xlink" width="17" height="17" viewBox="0 0 17 17">
<g>
</g>
	<path d="M8.454 1.492l-8.242 14.508h16.581l-8.339-14.508zM8.459 3.508l6.605 11.492h-13.134l6.529-11.492zM9 10.938h-1v-3.938h1v3.938zM9.5 13.031c0 0.552-0.447 1-1 1s-1-0.448-1-1 0.447-1 1-1 1 0.448 1 1z" fill="#000000" />
</svg>

<svg xmlns="http://www.w3.org/2000/svg" width="17" height="17" viewBox="0 0 17 17"><path d="M8.454 1.492L.212 16h16.581L8.454 1.492zm.005 2.016L15.064 15H1.93L8.459 3.508zM9 10.938H8V7h1v3.938zm.5 2.093a1 1 0 11-2 0 1 1 0 012 0z"/></svg>
